X:13
T:Bow Legged Tailor
Z: id:dc-jig-11
M:6/8
L:1/8
K:G Major
D|GFG gfg|edc B2A|GFG BAG|FAA cAF|!
GFG gfg|afd cAF|GFG Adc|BGF G2:|!
B|dBG dBG|ecA dBG|gba gdB|cAA ABc|!
dge dBG|EFG AFD|GFG Adc|BGF G2:|!
